X: 14320
T: Gallagher's Frolics
R: jig
M: 6/8
K: Edorian
|:~E3 GFE|BAB dBA|~B3 BAB|GFG AFD|
~E3 GFE|BAB dBA|BAG FAF|1 GEE E2 D:|2 GEE E2 B||
|:e2f gfe|~g3 bge|dcd fed|faf fed|
e2f gfe|dce dBA|BAG FAF|1 GEE E2 e:|2 GEE E2D||

